X:1
T:Title
%%score ( 1 2 ) ( 3 4 )
L:1/8
Q:1/4=105
M:4/4
K:Ab
V:1 treble nm="Grand Piano, Soprano"
V:2 treble 
V:3 bass nm="Choir Pad, Mississauga, Philip Phillips"
V:4 bass 
V:1
 [Ec][Ec][Ec][Ec] [Ec]2 [DB]2 | [CA]4 E4 | z4 z2 A2 | B4 z4 | [Ec]2 [Ec]2 [Ec][Ec][DB][Ec] | %5
w: By~Philip~Phillips * * * * *|||||
 [Fd]4 [DF]4 | EE[EA][EB] [Ec]2 [DB]2 | [CA]6 z2 | [Ec]2 [Ec]2 [DB]2 [DB]2 | %9
w: ||||
 [CA]2 [CA]2 [=EG]2 [EG]2 | [DF]2 [DB]2 [CE]2 [CA]2 | [=Ec]2 [EG]2 [FA]2 [FA]2 | %12
w: |||
 [EA]E[EG][EA] [Ec]2 [DB]2 | [CA]8 |] %14
w: ||
V:2
 x8 | x8 | [CA][CA][=DA][DA] [EG]2 EC | E4- [Ed]2 z2 | x8 | x8 | x8 | x8 | x8 | x8 | x8 | x8 | x8 | %13
 x8 |] %14
V:3
 [A,,A,][A,,A,][A,,A,][A,,A,] [A,,A,]2 [E,G,]2 | [F,A,]4 [C,A,]4 | z4 .E,2 A,2 | G,4 z4 | %4
 [A,,A,]2 [A,,A,]2 [A,,A,][A,,A,][A,,A,][A,,A,] | [D,A,]4 [D,A,]4 | %6
 [E,C][E,C][E,C][E,G,] A,2 [E,G,]2 | [A,,A,]6 z2 | A,2 A,2 [E,G,]2 [E,G,]2 | %9
 [F,A,]2 [F,A,]2 [C,C]2 [C,B,]2 | [D,A,]2 [D,F,]2 [A,,A,]2 [A,,A,]2 | %11
 [C,G,]2 [C,C]2 [F,C]2 [D,D]2 | [E,C][E,C][E,C][E,G,] A,2 [E,G,]2 | [A,,A,]8 |] %14
V:4
 x8 | x8 | [F,A,][F,A,][F,B,][F,B,] B,-[D,B,]C,A,, | E,4- [E,A,]2 z2 | x8 | x8 | x8 | x8 | x8 | %9
 x8 | x8 | x8 | x8 | x8 |] %14

